documentation/public/assets/images/03-link-do.svg

<svg width="136" height="14" viewBox="0 0 136 14" fill="none" xmlns="http://www.w3.org/2000/svg">
<path d="M2.08026 0.818182L5.10298 9.3892H5.2223L8.24503 0.818182H9.53764L5.79901 11H4.52628L0.787642 0.818182H2.08026ZM10.9645 11V3.36364H12.1378V11H10.9645ZM11.5611 2.09091C11.3324 2.09091 11.1352 2.01302 10.9695 1.85724C10.8071 1.70147 10.7259 1.5142 10.7259 1.29545C10.7259 1.0767 10.8071 0.889441 10.9695 0.733664C11.1352 0.577888 11.3324 0.5 11.5611 0.5C11.7898 0.5 11.9853 0.577888 12.1477 0.733664C12.3134 0.889441 12.3963 1.0767 12.3963 1.29545C12.3963 1.5142 12.3134 1.70147 12.1477 1.85724C11.9853 2.01302 11.7898 2.09091 11.5611 2.09091ZM19.6958 5.07386L18.6419 5.37216C18.5756 5.1965 18.4778 5.0258 18.3485 4.86009C18.2226 4.69105 18.0502 4.55185 17.8315 4.44247C17.6127 4.3331 17.3327 4.27841 16.9913 4.27841C16.524 4.27841 16.1345 4.38613 15.823 4.60156C15.5147 4.81368 15.3606 5.08381 15.3606 5.41193C15.3606 5.7036 15.4667 5.93395 15.6788 6.10298C15.8909 6.27202 16.2224 6.41288 16.6731 6.52557L17.8066 6.80398C18.4894 6.9697 18.9982 7.22325 19.3329 7.56463C19.6677 7.9027 19.835 8.33854 19.835 8.87216C19.835 9.30966 19.7091 9.70076 19.4572 10.0455C19.2086 10.3902 18.8606 10.6619 18.4132 10.8608C17.9657 11.0597 17.4454 11.1591 16.8521 11.1591C16.0732 11.1591 15.4286 10.9901 14.9181 10.652C14.4077 10.3139 14.0846 9.82008 13.9487 9.17045L15.0623 8.89205C15.1684 9.30303 15.3689 9.61127 15.6639 9.81676C15.9622 10.0223 16.3516 10.125 16.8322 10.125C17.3791 10.125 17.8133 10.009 18.1348 9.77699C18.4596 9.54167 18.622 9.25994 18.622 8.93182C18.622 8.66667 18.5292 8.4446 18.3436 8.26562C18.158 8.08333 17.8729 7.94744 17.4885 7.85795L16.2157 7.55966C15.5164 7.39394 15.0027 7.13707 14.6745 6.78906C14.3497 6.43774 14.1873 5.99858 14.1873 5.47159C14.1873 5.04072 14.3083 4.65956 14.5502 4.32812C14.7955 3.99669 15.1286 3.73651 15.5495 3.54758C15.9738 3.35866 16.4544 3.2642 16.9913 3.2642C17.747 3.2642 18.3403 3.42992 18.7711 3.76136C19.2053 4.0928 19.5136 4.5303 19.6958 5.07386ZM21.6012 11V3.36364H22.7745V11H21.6012ZM22.1978 2.09091C21.9691 2.09091 21.7719 2.01302 21.6062 1.85724C21.4438 1.70147 21.3626 1.5142 21.3626 1.29545C21.3626 1.0767 21.4438 0.889441 21.6062 0.733664C21.7719 0.577888 21.9691 0.5 22.1978 0.5C22.4265 0.5 22.622 0.577888 22.7844 0.733664C22.9502 0.889441 23.033 1.0767 23.033 1.29545C23.033 1.5142 22.9502 1.70147 22.7844 1.85724C22.622 2.01302 22.4265 2.09091 22.1978 2.09091ZM28.2445 3.36364V4.35795H24.2871V3.36364H28.2445ZM25.4405 1.53409H26.6138V8.8125C26.6138 9.14394 26.6619 9.39252 26.758 9.55824C26.8574 9.72064 26.9834 9.83002 27.1358 9.88636C27.2916 9.93939 27.4557 9.96591 27.628 9.96591C27.7573 9.96591 27.8633 9.95928 27.9462 9.94602C28.0291 9.92945 28.0953 9.91619 28.1451 9.90625L28.3837 10.9602C28.3042 10.9901 28.1931 11.0199 28.0506 11.0497C27.9081 11.0829 27.7275 11.0994 27.5087 11.0994C27.1773 11.0994 26.8525 11.0282 26.5343 10.8857C26.2194 10.7431 25.9576 10.526 25.7488 10.2344C25.5433 9.94271 25.4405 9.57481 25.4405 9.13068V1.53409ZM37.0492 11.1591C36.3598 11.1591 35.7549 10.995 35.2346 10.6669C34.7175 10.3388 34.3132 9.87973 34.0215 9.28977C33.7331 8.69981 33.589 8.01042 33.589 7.22159C33.589 6.42614 33.7331 5.73177 34.0215 5.13849C34.3132 4.54522 34.7175 4.08452 35.2346 3.75639C35.7549 3.42827 36.3598 3.2642 37.0492 3.2642C37.7386 3.2642 38.3418 3.42827 38.8588 3.75639C39.3792 4.08452 39.7836 4.54522 40.0719 5.13849C40.3636 5.73177 40.5094 6.42614 40.5094 7.22159C40.5094 8.01042 40.3636 8.69981 40.0719 9.28977C39.7836 9.87973 39.3792 10.3388 38.8588 10.6669C38.3418 10.995 37.7386 11.1591 37.0492 11.1591ZM37.0492 10.1051C37.5729 10.1051 38.0037 9.97088 38.3418 9.70241C38.6799 9.43395 38.9301 9.08097 39.0925 8.64347C39.2549 8.20597 39.3361 7.73201 39.3361 7.22159C39.3361 6.71117 39.2549 6.23556 39.0925 5.79474C38.9301 5.35393 38.6799 4.99763 38.3418 4.72585C38.0037 4.45407 37.5729 4.31818 37.0492 4.31818C36.5255 4.31818 36.0946 4.45407 35.7566 4.72585C35.4185 4.99763 35.1683 5.35393 35.0059 5.79474C34.8435 6.23556 34.7623 6.71117 34.7623 7.22159C34.7623 7.73201 34.8435 8.20597 35.0059 8.64347C35.1683 9.08097 35.4185 9.43395 35.7566 9.70241C36.0946 9.97088 36.5255 10.1051 37.0492 10.1051ZM47.1129 7.87784V3.36364H48.2862V11H47.1129V9.70739H47.0334C46.8544 10.0952 46.576 10.425 46.1982 10.6967C45.8203 10.9652 45.343 11.0994 44.7663 11.0994C44.2891 11.0994 43.8648 10.995 43.4936 10.7862C43.1224 10.5741 42.8307 10.2559 42.6186 9.83168C42.4065 9.40412 42.3004 8.86553 42.3004 8.21591V3.36364H43.4737V8.13636C43.4737 8.69318 43.6295 9.13731 43.9411 9.46875C44.2559 9.80019 44.657 9.96591 45.1442 9.96591C45.4358 9.96591 45.7325 9.89134 46.0341 9.74219C46.339 9.59304 46.5942 9.36435 46.7997 9.05611C47.0085 8.74787 47.1129 8.35511 47.1129 7.87784ZM50.4352 11V3.36364H51.5687V4.51705H51.6483C51.7875 4.1392 52.0394 3.83262 52.4039 3.5973C52.7685 3.36198 53.1795 3.24432 53.6369 3.24432C53.7231 3.24432 53.8308 3.24597 53.96 3.24929C54.0893 3.2526 54.1871 3.25758 54.2534 3.2642V4.45739C54.2136 4.44744 54.1225 4.43253 53.9799 4.41264C53.8407 4.38944 53.6932 4.37784 53.5375 4.37784C53.1663 4.37784 52.8348 4.45573 52.5431 4.61151C52.2548 4.76397 52.0261 4.97609 51.8571 5.24787C51.6913 5.51634 51.6085 5.82292 51.6085 6.16761V11H50.4352Z" fill="#1F1F1F"/>
<path d="M60.233 11V0.818182H61.4659V5.35227H66.8949V0.818182H68.1278V11H66.8949V6.44602H61.4659V11H60.233ZM73.6388 11.1591C72.9031 11.1591 72.2683 10.9967 71.7347 10.6719C71.2044 10.3438 70.7951 9.88636 70.5067 9.29972C70.2217 8.70975 70.0792 8.02367 70.0792 7.24148C70.0792 6.45928 70.2217 5.76989 70.5067 5.1733C70.7951 4.57339 71.1961 4.10606 71.7099 3.77131C72.2269 3.43324 72.8301 3.2642 73.5195 3.2642C73.9173 3.2642 74.31 3.33049 74.6978 3.46307C75.0856 3.59564 75.4386 3.81108 75.7567 4.10938C76.0749 4.40436 76.3285 4.79545 76.5174 5.28267C76.7063 5.76989 76.8008 6.36979 76.8008 7.08239V7.57955H70.9144V6.56534H75.6076C75.6076 6.13447 75.5214 5.75 75.3491 5.41193C75.18 5.07386 74.9381 4.80705 74.6232 4.61151C74.3117 4.41596 73.9438 4.31818 73.5195 4.31818C73.0522 4.31818 72.6478 4.43419 72.3065 4.66619C71.9684 4.89489 71.7082 5.19318 71.5259 5.56108C71.3436 5.92898 71.2525 6.32339 71.2525 6.74432V7.42045C71.2525 7.99716 71.3519 8.48603 71.5508 8.88707C71.753 9.2848 72.033 9.58807 72.391 9.79688C72.7489 10.0024 73.1649 10.1051 73.6388 10.1051C73.9471 10.1051 74.2255 10.062 74.4741 9.97585C74.726 9.88636 74.9431 9.75379 75.1254 9.57812C75.3076 9.39915 75.4485 9.17708 75.5479 8.91193L76.6815 9.23011C76.5621 9.61458 76.3616 9.95265 76.0799 10.2443C75.7982 10.5327 75.4502 10.758 75.0359 10.9205C74.6216 11.0795 74.1559 11.1591 73.6388 11.1591ZM79.7589 0.818182V11H78.5856V0.818182H79.7589ZM81.9078 13.8636V3.36364H83.0414V4.5767H83.1806C83.2667 4.44413 83.3861 4.27509 83.5385 4.0696C83.6943 3.8608 83.9164 3.67519 84.2047 3.51278C84.4964 3.34706 84.8908 3.2642 85.388 3.2642C86.031 3.2642 86.5977 3.42495 87.0882 3.74645C87.5788 4.06794 87.9616 4.52367 88.2367 5.11364C88.5118 5.7036 88.6493 6.39962 88.6493 7.2017C88.6493 8.01042 88.5118 8.71141 88.2367 9.30469C87.9616 9.89465 87.5804 10.352 87.0932 10.6768C86.606 10.9983 86.0442 11.1591 85.4078 11.1591C84.9173 11.1591 84.5246 11.0779 84.2296 10.9155C83.9346 10.7498 83.7076 10.5625 83.5485 10.3537C83.3894 10.1416 83.2667 9.96591 83.1806 9.8267H83.0811V13.8636H81.9078ZM83.0613 7.18182C83.0613 7.75852 83.1458 8.26728 83.3148 8.7081C83.4838 9.1456 83.7308 9.48864 84.0556 9.73722C84.3804 9.98248 84.7781 10.1051 85.2488 10.1051C85.7393 10.1051 86.1486 9.97585 86.4767 9.71733C86.8082 9.45549 87.0568 9.10417 87.2225 8.66335C87.3915 8.21922 87.476 7.72538 87.476 7.18182C87.476 6.64489 87.3932 6.16098 87.2275 5.73011C87.065 5.29593 86.8181 4.95289 86.4867 4.70099C86.1586 4.44579 85.7459 4.31818 85.2488 4.31818C84.7715 4.31818 84.3704 4.43916 84.0456 4.68111C83.7208 4.91974 83.4756 5.2545 83.3098 5.68537C83.1441 6.11293 83.0613 6.61174 83.0613 7.18182ZM97.4789 11.1591C96.763 11.1591 96.1465 10.9901 95.6294 10.652C95.1124 10.3139 94.7147 9.84825 94.4363 9.25497C94.1578 8.66169 94.0186 7.9839 94.0186 7.22159C94.0186 6.44602 94.1612 5.7616 94.4462 5.16832C94.7346 4.57173 95.1356 4.10606 95.6493 3.77131C96.1664 3.43324 96.7696 3.2642 97.459 3.2642C97.9959 3.2642 98.4798 3.36364 98.9107 3.5625C99.3416 3.76136 99.6945 4.03977 99.9696 4.39773C100.245 4.75568 100.415 5.1733 100.482 5.65057H99.3084C99.2189 5.30256 99.0201 4.99432 98.7118 4.72585C98.4069 4.45407 97.9959 4.31818 97.4789 4.31818C97.0215 4.31818 96.6204 4.4375 96.2757 4.67614C95.9344 4.91146 95.6676 5.24455 95.4753 5.67543C95.2864 6.10298 95.1919 6.60511 95.1919 7.18182C95.1919 7.77178 95.2847 8.28551 95.4703 8.72301C95.6593 9.16051 95.9244 9.50024 96.2658 9.74219C96.6105 9.98414 97.0149 10.1051 97.4789 10.1051C97.7838 10.1051 98.0605 10.0521 98.3091 9.94602C98.5577 9.83996 98.7682 9.6875 98.9405 9.48864C99.1129 9.28977 99.2355 9.05114 99.3084 8.77273H100.482C100.415 9.22348 100.251 9.6295 99.9895 9.99077C99.731 10.3487 99.388 10.6338 98.9604 10.8459C98.5362 11.0547 98.0423 11.1591 97.4789 11.1591ZM105.399 11.1591C104.663 11.1591 104.028 10.9967 103.494 10.6719C102.964 10.3438 102.555 9.88636 102.267 9.29972C101.981 8.70975 101.839 8.02367 101.839 7.24148C101.839 6.45928 101.981 5.76989 102.267 5.1733C102.555 4.57339 102.956 4.10606 103.47 3.77131C103.987 3.43324 104.59 3.2642 105.279 3.2642C105.677 3.2642 106.07 3.33049 106.458 3.46307C106.845 3.59564 107.198 3.81108 107.517 4.10938C107.835 4.40436 108.088 4.79545 108.277 5.28267C108.466 5.76989 108.561 6.36979 108.561 7.08239V7.57955H102.674V6.56534H107.367C107.367 6.13447 107.281 5.75 107.109 5.41193C106.94 5.07386 106.698 4.80705 106.383 4.61151C106.071 4.41596 105.704 4.31818 105.279 4.31818C104.812 4.31818 104.408 4.43419 104.066 4.66619C103.728 4.89489 103.468 5.19318 103.286 5.56108C103.103 5.92898 103.012 6.32339 103.012 6.74432V7.42045C103.012 7.99716 103.112 8.48603 103.311 8.88707C103.513 9.2848 103.793 9.58807 104.151 9.79688C104.509 10.0024 104.925 10.1051 105.399 10.1051C105.707 10.1051 105.985 10.062 106.234 9.97585C106.486 9.88636 106.703 9.75379 106.885 9.57812C107.067 9.39915 107.208 9.17708 107.308 8.91193L108.441 9.23011C108.322 9.61458 108.121 9.95265 107.84 10.2443C107.558 10.5327 107.21 10.758 106.796 10.9205C106.381 11.0795 105.916 11.1591 105.399 11.1591ZM111.519 6.40625V11H110.345V3.36364H111.479V4.55682H111.578C111.757 4.16903 112.029 3.85748 112.394 3.62216C112.758 3.38352 113.229 3.2642 113.806 3.2642C114.323 3.2642 114.775 3.37027 115.163 3.58239C115.551 3.79119 115.852 4.10938 116.068 4.53693C116.283 4.96117 116.391 5.49811 116.391 6.14773V11H115.218V6.22727C115.218 5.62737 115.062 5.16004 114.75 4.82528C114.439 4.48722 114.011 4.31818 113.468 4.31818C113.093 4.31818 112.758 4.39938 112.463 4.56179C112.172 4.72419 111.941 4.96117 111.772 5.27273C111.603 5.58428 111.519 5.96212 111.519 6.40625ZM121.856 3.36364V4.35795H117.898V3.36364H121.856ZM119.052 1.53409H120.225V8.8125C120.225 9.14394 120.273 9.39252 120.369 9.55824C120.469 9.72064 120.595 9.83002 120.747 9.88636C120.903 9.93939 121.067 9.96591 121.239 9.96591C121.369 9.96591 121.475 9.95928 121.558 9.94602C121.64 9.92945 121.707 9.91619 121.756 9.90625L121.995 10.9602C121.915 10.9901 121.804 11.0199 121.662 11.0497C121.519 11.0829 121.339 11.0994 121.12 11.0994C120.789 11.0994 120.464 11.0282 120.146 10.8857C119.831 10.7431 119.569 10.526 119.36 10.2344C119.155 9.94271 119.052 9.57481 119.052 9.13068V1.53409ZM126.74 11.1591C126.005 11.1591 125.37 10.9967 124.836 10.6719C124.306 10.3438 123.897 9.88636 123.608 9.29972C123.323 8.70975 123.181 8.02367 123.181 7.24148C123.181 6.45928 123.323 5.76989 123.608 5.1733C123.897 4.57339 124.298 4.10606 124.811 3.77131C125.328 3.43324 125.932 3.2642 126.621 3.2642C127.019 3.2642 127.412 3.33049 127.799 3.46307C128.187 3.59564 128.54 3.81108 128.858 4.10938C129.176 4.40436 129.43 4.79545 129.619 5.28267C129.808 5.76989 129.902 6.36979 129.902 7.08239V7.57955H124.016V6.56534H128.709C128.709 6.13447 128.623 5.75 128.451 5.41193C128.282 5.07386 128.04 4.80705 127.725 4.61151C127.413 4.41596 127.045 4.31818 126.621 4.31818C126.154 4.31818 125.749 4.43419 125.408 4.66619C125.07 4.89489 124.81 5.19318 124.627 5.56108C124.445 5.92898 124.354 6.32339 124.354 6.74432V7.42045C124.354 7.99716 124.453 8.48603 124.652 8.88707C124.855 9.2848 125.135 9.58807 125.493 9.79688C125.85 10.0024 126.266 10.1051 126.74 10.1051C127.049 10.1051 127.327 10.062 127.576 9.97585C127.828 9.88636 128.045 9.75379 128.227 9.57812C128.409 9.39915 128.55 9.17708 128.65 8.91193L129.783 9.23011C129.664 9.61458 129.463 9.95265 129.181 10.2443C128.9 10.5327 128.552 10.758 128.137 10.9205C127.723 11.0795 127.257 11.1591 126.74 11.1591ZM131.687 11V3.36364H132.821V4.51705H132.9C133.039 4.1392 133.291 3.83262 133.656 3.5973C134.02 3.36198 134.431 3.24432 134.889 3.24432C134.975 3.24432 135.083 3.24597 135.212 3.24929C135.341 3.2526 135.439 3.25758 135.505 3.2642V4.45739C135.466 4.44744 135.374 4.43253 135.232 4.41264C135.093 4.38944 134.945 4.37784 134.789 4.37784C134.418 4.37784 134.087 4.45573 133.795 4.61151C133.507 4.76397 133.278 4.97609 133.109 5.24787C132.943 5.51634 132.86 5.82292 132.86 6.16761V11H131.687Z" fill="#0F67F5"/>
</svg>

<svg width="136" height="14" fill="none" xmlns="http://www.w3.org/2000/svg"><path d="M2.08.82 5.1 9.39h.12L8.25.82h1.29L5.8 11H4.53L.79.82h1.29ZM10.96 11V3.36h1.18V11h-1.18Zm.6-8.9a.83.83 0 0 1-.6-.24.75.75 0 0 1-.23-.56c0-.22.08-.41.24-.57a.83.83 0 0 1 .6-.23c.22 0 .42.08.58.23.16.16.25.35.25.57 0 .21-.09.4-.25.56a.82.82 0 0 1-.59.23Zm8.14 2.97-1.06.3a1.96 1.96 0 0 0-.3-.51 1.5 1.5 0 0 0-.5-.42c-.23-.1-.5-.16-.85-.16a2 2 0 0 0-1.17.32c-.3.21-.46.48-.46.81 0 .3.1.52.32.7.21.16.54.3 1 .42l1.13.27c.68.17 1.19.42 1.52.76.34.34.5.78.5 1.31 0 .44-.12.83-.37 1.18-.25.34-.6.61-1.05.81-.44.2-.96.3-1.56.3-.78 0-1.42-.17-1.93-.5a2.25 2.25 0 0 1-.97-1.49l1.11-.28c.1.41.3.72.6.93.3.2.7.3 1.17.3.55 0 .98-.11 1.3-.34.33-.24.5-.52.5-.85 0-.26-.1-.49-.29-.66a1.78 1.78 0 0 0-.85-.41l-1.27-.3a3.04 3.04 0 0 1-1.55-.77 1.87 1.87 0 0 1-.48-1.32c0-.43.12-.81.36-1.14.25-.33.58-.6 1-.78.42-.2.9-.29 1.44-.29.76 0 1.35.17 1.78.5.44.33.74.77.93 1.31ZM21.6 11V3.36h1.17V11H21.6Zm.6-8.9a.83.83 0 0 1-.6-.24.75.75 0 0 1-.24-.56c0-.22.08-.41.25-.57A.83.83 0 0 1 22.2.5c.23 0 .42.08.58.23.17.16.25.35.25.57 0 .21-.08.4-.25.56a.82.82 0 0 1-.58.23Zm6.04 1.26v1H24.3v-1h3.95Zm-2.8-1.83h1.17v7.28c0 .33.05.58.15.75.1.16.22.27.38.33.15.05.32.08.49.08l.32-.02.2-.04.23 1.05a2.37 2.37 0 0 1-.87.14c-.33 0-.66-.07-.98-.21a1.94 1.94 0 0 1-.78-.66 1.9 1.9 0 0 1-.3-1.1v-7.6Zm11.6 9.63c-.68 0-1.29-.17-1.8-.5a3.34 3.34 0 0 1-1.22-1.37 4.66 4.66 0 0 1-.43-2.07c0-.8.14-1.49.43-2.08.3-.6.7-1.06 1.21-1.38.52-.33 1.13-.5 1.82-.5a3.3 3.3 0 0 1 3.02 1.87c.3.6.44 1.3.44 2.1 0 .78-.15 1.47-.44 2.06a3.3 3.3 0 0 1-1.21 1.38 3.3 3.3 0 0 1-1.81.49Zm0-1.05c.53 0 .96-.14 1.3-.4.34-.28.59-.63.75-1.07a4.1 4.1 0 0 0 0-2.85 2.4 2.4 0 0 0-.75-1.06 2 2 0 0 0-1.3-.41 2 2 0 0 0-1.28.4A2.4 2.4 0 0 0 35 5.8a4.1 4.1 0 0 0-.25 1.43c0 .51.08.99.25 1.42.16.44.4.8.75 1.06.33.27.77.4 1.29.4Zm10.07-2.23V3.36h1.18V11H47.1V9.7h-.08a2.5 2.5 0 0 1-.83 1c-.38.27-.86.4-1.43.4-.48 0-.9-.1-1.28-.31a2.2 2.2 0 0 1-.87-.96 3.63 3.63 0 0 1-.32-1.61V3.36h1.17v4.78c0 .55.16 1 .47 1.33.32.33.72.5 1.2.5a2 2 0 0 0 1.97-2.1ZM50.44 11V3.36h1.13v1.16h.08c.14-.38.39-.69.75-.92.37-.24.78-.36 1.24-.36a12.96 12.96 0 0 1 .61.02v1.2a3.48 3.48 0 0 0-.71-.08c-.37 0-.7.08-1 .23a1.71 1.71 0 0 0-.93 1.56V11h-1.17Z" fill="#1F1F1F"/><path d="M60.23 11V.82h1.24v4.53h5.42V.82h1.24V11h-1.24V6.45h-5.42V11h-1.24Zm13.4.16A3.27 3.27 0 0 1 70.5 9.3a4.68 4.68 0 0 1-.42-2.06c0-.78.14-1.47.43-2.07a3.23 3.23 0 0 1 3.01-1.9c.4 0 .79.06 1.18.2a2.92 2.92 0 0 1 1.82 1.81 5 5 0 0 1 .28 1.8v.5h-5.89V6.57h4.7c0-.44-.09-.82-.26-1.16a1.95 1.95 0 0 0-1.83-1.1c-.47 0-.87.12-1.21.36-.34.22-.6.52-.78.9-.19.36-.28.75-.28 1.17v.68c0 .58.1 1.07.3 1.47.2.4.48.7.84.9a2.68 2.68 0 0 0 2.08.19c.26-.1.47-.23.66-.4.18-.18.32-.4.42-.67l1.13.32c-.12.38-.32.72-.6 1.01-.28.3-.63.52-1.04.68-.42.16-.88.24-1.4.24ZM79.77.82V11H78.6V.82h1.17Zm2.15 13.04V3.36h1.13v1.22h.14l.36-.51c.15-.2.38-.4.66-.56.3-.16.7-.25 1.19-.25a3.03 3.03 0 0 1 2.85 1.85c.27.6.4 1.29.4 2.1 0 .8-.13 1.5-.4 2.1a2.99 2.99 0 0 1-2.83 1.85c-.5 0-.89-.08-1.18-.24-.3-.17-.52-.36-.68-.57a7.49 7.49 0 0 1-.37-.52h-.1v4.03h-1.17Zm1.15-6.68c0 .58.09 1.09.25 1.53.17.44.42.78.75 1.03.32.24.72.37 1.19.37.49 0 .9-.13 1.23-.4.33-.25.58-.6.74-1.05.17-.44.26-.93.26-1.48 0-.54-.09-1.02-.25-1.45a2.32 2.32 0 0 0-.74-1.03 1.96 1.96 0 0 0-1.24-.38 1.96 1.96 0 0 0-1.94 1.37 4 4 0 0 0-.25 1.5Zm14.42 3.98a3.3 3.3 0 0 1-1.85-.5 3.3 3.3 0 0 1-1.2-1.4 4.73 4.73 0 0 1-.41-2.04c0-.77.14-1.46.43-2.05a3.23 3.23 0 0 1 3.01-1.9c.54 0 1.02.1 1.45.3a2.6 2.6 0 0 1 1.57 2.09h-1.17a1.79 1.79 0 0 0-1.83-1.33 1.9 1.9 0 0 0-1.2.35c-.35.23-.61.56-.8 1a3.7 3.7 0 0 0-.29 1.5c0 .6.1 1.1.28 1.54.19.44.45.78.8 1.02a2.2 2.2 0 0 0 2.04.21 1.71 1.71 0 0 0 1-1.18h1.17a2.73 2.73 0 0 1-1.52 2.08c-.42.2-.92.3-1.48.3Zm7.92 0a3.27 3.27 0 0 1-3.13-1.86 4.67 4.67 0 0 1-.43-2.06c0-.78.14-1.47.43-2.07a3.23 3.23 0 0 1 3.01-1.9c.4 0 .79.06 1.18.2a2.93 2.93 0 0 1 1.82 1.81 5 5 0 0 1 .28 1.8v.5h-5.89V6.57h4.7c0-.44-.09-.82-.26-1.16a1.95 1.95 0 0 0-1.83-1.1c-.47 0-.87.12-1.21.36-.34.22-.6.52-.78.9-.19.36-.28.75-.28 1.17v.68c0 .58.1 1.07.3 1.47.2.4.48.7.84.9.36.21.77.32 1.25.32a2.08 2.08 0 0 0 1.49-.53c.18-.18.32-.4.42-.67l1.13.32c-.12.38-.32.72-.6 1.01-.28.3-.63.52-1.04.68-.42.16-.88.24-1.4.24Zm6.12-4.75V11h-1.17V3.36h1.13v1.2h.1c.18-.4.45-.7.81-.94.37-.24.84-.36 1.42-.36.51 0 .97.11 1.35.32.4.21.7.53.9.96.22.42.33.96.33 1.6V11h-1.17V6.23c0-.6-.16-1.07-.47-1.4a1.65 1.65 0 0 0-1.28-.51c-.38 0-.71.08-1 .24-.3.16-.53.4-.7.71-.17.31-.25.7-.25 1.14Zm10.34-3.05v1h-3.96v-1h3.96Zm-2.8-1.83h1.16v7.28c0 .33.05.58.15.75.1.16.22.27.38.33.15.05.32.08.49.08l.32-.02.2-.04.23 1.05a2.41 2.41 0 0 1-.87.14c-.33 0-.66-.07-.97-.21a1.94 1.94 0 0 1-.79-.66 1.9 1.9 0 0 1-.3-1.1v-7.6Zm7.68 9.63a3.6 3.6 0 0 1-1.9-.49 3.28 3.28 0 0 1-1.23-1.37 4.68 4.68 0 0 1-.43-2.06c0-.78.14-1.47.43-2.07a3.23 3.23 0 0 1 3.01-1.9c.4 0 .8.06 1.18.2a2.92 2.92 0 0 1 1.82 1.81 5 5 0 0 1 .28 1.8v.5h-5.88V6.57h4.69c0-.44-.09-.82-.26-1.16a1.95 1.95 0 0 0-1.83-1.1c-.47 0-.87.12-1.21.36-.34.22-.6.52-.78.9-.19.36-.28.75-.28 1.17v.68c0 .58.1 1.07.3 1.47.2.4.48.7.84.9.36.21.78.32 1.25.32.3 0 .59-.05.84-.13.25-.1.46-.23.65-.4.18-.18.32-.4.42-.67l1.13.32a2.5 2.5 0 0 1-.6 1.01c-.28.3-.63.52-1.04.68-.42.16-.88.24-1.4.24Zm4.95-.16V3.36h1.13v1.16h.08c.14-.38.4-.69.76-.92.36-.24.77-.36 1.23-.36a12.96 12.96 0 0 1 .62.02v1.2a3.43 3.43 0 0 0-.72-.08c-.37 0-.7.08-1 .23a1.71 1.71 0 0 0-.93 1.56V11h-1.17Z" fill="#0F67F5"/></svg>
